X: 1
T: Lasses Trust in Providence
O: Shetland
S: via B. McOwen, arr. T. Traub 4-26-2004
R: Reel
M: 4/4
L: 1/8
K: D
A2 \
| "D"d2 de fdef | "G"d2 df "A7"ecBA \
| "D"d2 de "Bm"fdef | "G"dBAF "A7"E2 EA \
|| "D"d2 de fdef |
| "E7"d2 df "A7"ecBA | "D"d2 de "Bm"fdef | "G"dBAF "A"E2 E2 \
|[| "D"A2 AB ADFA | "G"d2 d2 BABd |
| "D"A A2 B ADFA | "A7"GFEC "D"DEFG | "D"A2 AB "D7"ADFA \
| "G"d2 d2 "A"BABd | "D"A A2 B ADFA | "A7"GFEC "D"D2 |]


